X: 11013
T: CAROLINE'S HORNPIPE
C: Bob McQuillen 1 Jne'01
B: Bob's Note Book 11 #13
R: hornpipe, reel
Z: 2020 John Chambers <jc:trillian.mit.edu>
M: C
L: 1/8
K: D
AG \
| F2DE FABd | B2BG EGBd | c2ec ABce | defd BdAG |
| FABA FDFA | BGBd g2ag | fAdf gecd | e2d2 d2  :|
|: ED \
| CDEF E2FE | DFAB A2BA |^GFEF GABd | c2A2 A2FA |
| BGBd edcB | A2FA BAFD | CDEF GABc | d2f2 d2  :|
%%begintext align
%% Caroline McBride is the oldest
%% daughter of George and Lee McBride's family. She's noted
%% for playing tunes on her pennywhistle and for pulling
%% a mean oar in a whale boat. She's a real nice girl,
%% and certainly deserves a tune, so here it is, Caroline,
%% with love from Bob.
%%endtext
%%text P.S.-- How many kids to _you_ know who row to school in a whale boat?

%%sep 1 1 500

%%sep 1 1 500

